X:49
T:Up with Aley, Aley
Z:Jack Campin, http://www.campin.me.uk/
F:Jack Campin's Nine-Note Tunebook
% last edit 03-02-2013
S:Simpson, The British Broadside Ballad and Its Music
M:3/4
L:1/4
Q:3/4=112
K:C %Transposed from D
c2c|G2F|E>DC|c2c|B2 c|d2d  |\
c2c|G2G|EFG |B3 |D>EF|F2E ||
C2G|G2F|E>DC|C2G|G2 A|B2D  |\
C2G|G2F|EFG |B3 |D2 C|D>ED|]

